src/assets/images/txt.svg

<svg xmlns="http://www.w3.org/2000/svg" xml:space="preserve" fill-rule="evenodd" stroke-linejoin="round" stroke-width="28.222" baseProfile="tiny" clip-path="url(#a)" version="1.2" viewBox="0 0 15375 17876"><defs class="ClipPathGroup"><clipPath id="a" clipPathUnits="userSpaceOnUse"><path d="M0 0h15375v17876H0z"/></clipPath></defs><g class="SlideGroup"><g class="Slide" clip-path="url(#a)"><g class="Page"><path d="M1-1v1H0l1-1Z" class="com.sun.star.drawing.PolyPolygonShape"/><path d="M0-1h1v1H0v-1Z" class="com.sun.star.drawing.PolyPolygonShape"/><path d="m0 1 1-1-1-1 2 1-2 1Zm1-1L0-1l1 1Z" class="com.sun.star.drawing.PolyPolygonShape"/><path d="M2 0 1 1V0H0h1v-1l1 1Z" class="com.sun.star.drawing.PolyPolygonShape"/><path d="M0 0v-1h1v1H0Z" class="com.sun.star.drawing.ClosedBezierShape"/><path d="M0 0v-1 1l1-1h1-1L0 0Z" class="com.sun.star.drawing.ClosedBezierShape"/><path d="M1 0H0v-1h1v1Z" class="com.sun.star.drawing.ClosedBezierShape"/><path d="M0-1ZM0 0h1-1Z" class="com.sun.star.drawing.PolyPolygonShape"/><path fill="#FFF" d="M1437 16440V1439h8334l4167 4167v10834H1437Z" class="com.sun.star.drawing.PolyPolygonShape"/><path fill="none" stroke="#000" stroke-width="375" d="M1437 16440V1439h8334l4167 4167v10834H1437Z" class="com.sun.star.drawing.PolyPolygonShape"/><path fill="#B2B2B2" d="m9770 1437 4168 4168H9770V1437Zm0 0Zm4168 4168Z" class="com.sun.star.drawing.PolyPolygonShape"/><path fill="none" stroke="#000" stroke-width="375" d="m9770 1437 4168 4168H9770V1437Z" class="com.sun.star.drawing.PolyPolygonShape"/><g class="com.sun.star.drawing.CustomShape"><path fill="#FFF" d="M7583 12000c-292 0-583 291-583 583v2334c0 292 291 584 583 584h6834c292 0 584-292 584-584v-2334c0-292-292-583-584-583H7583Zm-583 0Zm8001 3501Z"/><path fill="none" stroke="#333" stroke-width="200" d="M7583 12000c-292 0-583 291-583 583v2334c0 292 291 584 583 584h6834c292 0 584-292 584-584v-2334c0-292-292-583-584-583H7583Z"/></g><g class="com.sun.star.drawing.CustomShape"><path fill="#B2B2B2" d="M7600 14303h594v696h-594v-696Zm825-1803h1881v617h-631v1882h-619v-1882h-631v-617Zm2022 1h681l356 769 343-769h674l-622 1210 681 1288h-695l-394-803-396 803h-691l691-1303-628-1195Zm2172-1h1880v617h-630v1882h-620v-1882h-630v-617Z"/><path fill="none" stroke="#000" stroke-linejoin="miter" stroke-width="26" d="M7600 14303h594v696h-594v-696ZM8425 12500h1881v617h-631v1882h-619v-1882h-631v-617ZM10447 12501h681l356 769 343-769h674l-622 1210 681 1288h-695l-394-803-396 803h-691l691-1303-628-1195ZM12619 12500h1880v617h-630v1882h-620v-1882h-630v-617Z"/></g></g></g></g></svg>

<?xml version="1.0" encoding="UTF-8"?>
<svg xmlns="http://www.w3.org/2000/svg" xmlns:ooo="http://xml.openoffice.org/svg/export" xmlns:xlink="http://www.w3.org/1999/xlink" version="1.2" baseProfile="tiny" viewBox="0 0 15375 17876" fill-rule="evenodd" clip-path="url(#presentation_clip_path)" stroke-width="28.222" stroke-linejoin="round" xml:space="preserve">
 <defs class="ClipPathGroup">
  <clipPath id="presentation_clip_path" clipPathUnits="userSpaceOnUse">
   <rect x="0" y="0" width="15375" height="17876"/>
  </clipPath>
 </defs>
 <defs class="TextShapeIndex">
  <g ooo:slide="id1" ooo:id-list="id3 id4 id5 id6 id7 id8 id9 id10 id11 id12 id13 id14 id15 id16 id17"/>
 </defs>
 <defs class="EmbeddedBulletChars">
  <g id="bullet-char-template(57356)" transform="scale(0.00048828125,-0.00048828125)">
   <path d="M 580,1141 L 1163,571 580,0 -4,571 580,1141 Z"/>
  </g>
  <g id="bullet-char-template(57354)" transform="scale(0.00048828125,-0.00048828125)">
   <path d="M 8,1128 L 1137,1128 1137,0 8,0 8,1128 Z"/>
  </g>
  <g id="bullet-char-template(10146)" transform="scale(0.00048828125,-0.00048828125)">
   <path d="M 174,0 L 602,739 174,1481 1456,739 174,0 Z M 1358,739 L 309,1346 659,739 1358,739 Z"/>
  </g>
  <g id="bullet-char-template(10132)" transform="scale(0.00048828125,-0.00048828125)">
   <path d="M 2015,739 L 1276,0 717,0 1260,543 174,543 174,936 1260,936 717,1481 1274,1481 2015,739 Z"/>
  </g>
  <g id="bullet-char-template(10007)" transform="scale(0.00048828125,-0.00048828125)">
   <path d="M 0,-2 C -7,14 -16,27 -25,37 L 356,567 C 262,823 215,952 215,954 215,979 228,992 255,992 264,992 276,990 289,987 310,991 331,999 354,1012 L 381,999 492,748 772,1049 836,1024 860,1049 C 881,1039 901,1025 922,1006 886,937 835,863 770,784 769,783 710,716 594,584 L 774,223 C 774,196 753,168 711,139 L 727,119 C 717,90 699,76 672,76 641,76 570,178 457,381 L 164,-76 C 142,-110 111,-127 72,-127 30,-127 9,-110 8,-76 1,-67 -2,-52 -2,-32 -2,-23 -1,-13 0,-2 Z"/>
  </g>
  <g id="bullet-char-template(10004)" transform="scale(0.00048828125,-0.00048828125)">
   <path d="M 285,-33 C 182,-33 111,30 74,156 52,228 41,333 41,471 41,549 55,616 82,672 116,743 169,778 240,778 293,778 328,747 346,684 L 369,508 C 377,444 397,411 428,410 L 1163,1116 C 1174,1127 1196,1133 1229,1133 1271,1133 1292,1118 1292,1087 L 1292,965 C 1292,929 1282,901 1262,881 L 442,47 C 390,-6 338,-33 285,-33 Z"/>
  </g>
  <g id="bullet-char-template(9679)" transform="scale(0.00048828125,-0.00048828125)">
   <path d="M 813,0 C 632,0 489,54 383,161 276,268 223,411 223,592 223,773 276,916 383,1023 489,1130 632,1184 813,1184 992,1184 1136,1130 1245,1023 1353,916 1407,772 1407,592 1407,412 1353,268 1245,161 1136,54 992,0 813,0 Z"/>
  </g>
  <g id="bullet-char-template(8226)" transform="scale(0.00048828125,-0.00048828125)">
   <path d="M 346,457 C 273,457 209,483 155,535 101,586 74,649 74,723 74,796 101,859 155,911 209,963 273,989 346,989 419,989 480,963 531,910 582,859 608,796 608,723 608,648 583,586 532,535 482,483 420,457 346,457 Z"/>
  </g>
  <g id="bullet-char-template(8211)" transform="scale(0.00048828125,-0.00048828125)">
   <path d="M -4,459 L 1135,459 1135,606 -4,606 -4,459 Z"/>
  </g>
 </defs>
 <defs class="TextEmbeddedBitmaps"/>
 <g>
  <g id="id2" class="Master_Slide">
   <g id="bg-id2" class="Background"/>
   <g id="bo-id2" class="BackgroundObjects"/>
  </g>
 </g>
 <g class="SlideGroup">
  <g>
   <g id="id1" class="Slide" clip-path="url(#presentation_clip_path)">
    <g class="Page">
     <g class="com.sun.star.drawing.PolyPolygonShape">
      <g id="id3">
       <path fill="rgb(0,0,0)" stroke="none" d="M 1,-1 L 1,0 1,0 0,0 1,-1 Z"/>
      </g>
     </g>
     <g class="com.sun.star.drawing.PolyPolygonShape">
      <g id="id4">
       <path fill="rgb(0,0,0)" stroke="none" d="M 0,-1 L 1,-1 1,0 0,0 0,-1 Z"/>
      </g>
     </g>
     <g class="com.sun.star.drawing.PolyPolygonShape">
      <g id="id5">
       <path fill="rgb(0,0,0)" stroke="none" d="M 0,1 L 1,0 0,-1 2,0 0,1 Z M 1,0 L 0,-1 1,0 Z"/>
      </g>
     </g>
     <g class="com.sun.star.drawing.PolyPolygonShape">
      <g id="id6">
       <path fill="rgb(0,0,0)" stroke="none" d="M 2,0 L 1,1 1,1 1,0 0,0 0,0 1,0 1,-1 1,-1 2,0 Z"/>
      </g>
     </g>
     <g class="com.sun.star.drawing.ClosedBezierShape">
      <g id="id7">
       <path fill="rgb(0,0,0)" stroke="none" d="M 0,0 L 0,0 0,0 C 0,-1 0,-1 0,-1 L 0,-1 0,-1 0,-1 0,-1 1,-1 1,-1 1,-1 1,-1 1,-1 1,-1 1,0 1,0 1,0 1,0 1,0 1,0 0,0 Z"/>
      </g>
     </g>
     <g class="com.sun.star.drawing.ClosedBezierShape">
      <g id="id8">
       <path fill="rgb(0,0,0)" stroke="none" d="M 0,0 L 0,0 0,0 0,0 C 0,-1 0,-1 0,-1 L 0,0 0,0 0,0 1,-1 1,-1 C 2,-1 2,-1 2,-1 L 2,-1 1,-1 0,0 Z"/>
      </g>
     </g>
     <g class="com.sun.star.drawing.ClosedBezierShape">
      <g id="id9">
       <path fill="rgb(0,0,0)" stroke="none" d="M 1,0 C 0,0 0,0 0,0 L 0,0 0,-1 1,-1 1,-1 1,0 Z"/>
      </g>
     </g>
     <g class="com.sun.star.drawing.PolyPolygonShape">
      <g id="id10">
       <path fill="rgb(0,0,0)" stroke="none" d="M 0,-1 L 0,-1 Z"/>
      </g>
     </g>
     <g class="com.sun.star.drawing.PolyPolygonShape">
      <g id="id11">
       <path fill="rgb(0,0,0)" stroke="none" d="M 0,0 L 1,0 1,0 0,0 Z"/>
      </g>
     </g>
     <g class="com.sun.star.drawing.PolyPolygonShape">
      <g id="id12">
       <path fill="rgb(255,255,255)" stroke="none" d="M 1437,16440 L 1437,1439 9771,1439 13938,5606 13938,16440 1437,16440 Z"/>
      </g>
     </g>
     <g class="com.sun.star.drawing.PolyPolygonShape">
      <g id="id13">
       <path fill="none" stroke="rgb(0,0,0)" stroke-width="375" stroke-linejoin="round" d="M 1437,16440 L 1437,1439 9771,1439 13938,5606 13938,16440 1437,16440 Z"/>
      </g>
     </g>
     <g class="com.sun.star.drawing.PolyPolygonShape">
      <g id="id14">
       <path fill="rgb(178,178,178)" stroke="none" d="M 9770,1437 L 13938,5605 9770,5605 9770,1437 Z M 9770,1437 L 9770,1437 Z M 13938,5605 L 13938,5605 Z"/>
      </g>
     </g>
     <g class="com.sun.star.drawing.PolyPolygonShape">
      <g id="id15">
       <path fill="none" stroke="rgb(0,0,0)" stroke-width="375" stroke-linejoin="round" d="M 9770,1437 L 13938,5605 9770,5605 9770,1437 Z"/>
      </g>
     </g>
     <g class="com.sun.star.drawing.CustomShape">
      <g id="id16">
       <path fill="rgb(255,255,255)" stroke="none" d="M 7583,12000 C 7291,12000 7000,12291 7000,12583 L 7000,14917 C 7000,15209 7291,15501 7583,15501 L 14417,15501 C 14709,15501 15001,15209 15001,14917 L 15001,12583 C 15001,12291 14709,12000 14417,12000 L 7583,12000 Z M 7000,12000 L 7000,12000 Z M 15001,15501 L 15001,15501 Z"/>
       <path fill="none" stroke="rgb(51,51,51)" stroke-width="200" stroke-linejoin="round" d="M 7583,12000 C 7291,12000 7000,12291 7000,12583 L 7000,14917 C 7000,15209 7291,15501 7583,15501 L 14417,15501 C 14709,15501 15001,15209 15001,14917 L 15001,12583 C 15001,12291 14709,12000 14417,12000 L 7583,12000 Z"/>
      </g>
     </g>
     <g class="com.sun.star.drawing.CustomShape">
      <g id="id17">
       <path fill="rgb(178,178,178)" stroke="none" d="M 7600,14303 L 8194,14303 8194,14999 7600,14999 7600,14303 Z M 8425,12500 L 10306,12500 10306,13117 9675,13117 9675,14999 9056,14999 9056,13117 8425,13117 8425,12500 Z M 10447,12501 L 11128,12501 11484,13270 11827,12501 12501,12501 11879,13711 12560,14999 11865,14999 11471,14196 11075,14999 10384,14999 11075,13696 10447,12501 Z M 12619,12500 L 14499,12500 14499,13117 13869,13117 13869,14999 13249,14999 13249,13117 12619,13117 12619,12500 Z"/>
       <path fill="none" stroke="rgb(0,0,0)" stroke-width="26" stroke-linejoin="miter" d="M 7600,14303 L 8194,14303 8194,14999 7600,14999 7600,14303 Z"/>
       <path fill="none" stroke="rgb(0,0,0)" stroke-width="26" stroke-linejoin="miter" d="M 8425,12500 L 10306,12500 10306,13117 9675,13117 9675,14999 9056,14999 9056,13117 8425,13117 8425,12500 Z"/>
       <path fill="none" stroke="rgb(0,0,0)" stroke-width="26" stroke-linejoin="miter" d="M 10447,12501 L 11128,12501 11484,13270 11827,12501 12501,12501 11879,13711 12560,14999 11865,14999 11471,14196 11075,14999 10384,14999 11075,13696 10447,12501 Z"/>
       <path fill="none" stroke="rgb(0,0,0)" stroke-width="26" stroke-linejoin="miter" d="M 12619,12500 L 14499,12500 14499,13117 13869,13117 13869,14999 13249,14999 13249,13117 12619,13117 12619,12500 Z"/>
      </g>
     </g>
    </g>
   </g>
  </g>
 </g>
</svg>
